Sweet-Rainbow/icons/audio-headset.svg

<?xml version="1.0" encoding="UTF-8" standalone="no"?>
<!-- Generator: Gravit.io -->

<svg
   xmlns:dc="http://purl.org/dc/elements/1.1/"
   xmlns:cc="http://creativecommons.org/ns#"
   xmlns:rdf="http://www.w3.org/1999/02/22-rdf-syntax-ns#"
   xmlns:svg="http://www.w3.org/2000/svg"
   xmlns="http://www.w3.org/2000/svg"
   xmlns:sodipodi="http://sodipodi.sourceforge.net/DTD/sodipodi-0.dtd"
   xmlns:inkscape="http://www.inkscape.org/namespaces/inkscape"
   style="isolation:isolate"
   viewBox="0 0 36 36"
   width="48"
   height="48"
   version="1.1"
   id="svg16"
   sodipodi:docname="audio-headset.svg"
   inkscape:version="0.92.4 (5da689c313, 2019-01-14)">
  <metadata
     id="metadata22">
    <rdf:RDF>
      <cc:Work
         rdf:about="">
        <dc:format>image/svg+xml</dc:format>
        <dc:type
           rdf:resource="http://purl.org/dc/dcmitype/StillImage" />
        <dc:title></dc:title>
      </cc:Work>
    </rdf:RDF>
  </metadata>
  <defs
     id="defs20" />
  <sodipodi:namedview
     pagecolor="#ffffff"
     bordercolor="#666666"
     borderopacity="1"
     objecttolerance="10"
     gridtolerance="10"
     guidetolerance="10"
     inkscape:pageopacity="0"
     inkscape:pageshadow="2"
     inkscape:window-width="640"
     inkscape:window-height="480"
     id="namedview18"
     showgrid="false"
     inkscape:zoom="29.365243"
     inkscape:cx="25.325443"
     inkscape:cy="32"
     inkscape:current-layer="svg16"
     units="px" />
  <linearGradient
     id="_lgradient_13"
     x1="0"
     y1="0.5"
     x2="0.90748805"
     y2="0.92007786"
     gradientTransform="matrix(46.26,0,0,38.281,0.87,4.859)"
     gradientUnits="userSpaceOnUse">
    <stop
       offset="0%"
       stop-opacity="1"
       style="stop-color:rgb(0,196,255)"
       id="stop2" />
    <stop
       offset="83.88839793817618%"
       stop-opacity="1"
       style="stop-color:rgb(0,114,255)"
       id="stop4" />
  </linearGradient>
  <linearGradient
     id="_lgradient_14"
     x1="0.039545987"
     y1="0.28855938"
     x2="0.89989287"
     y2="0.96068716"
     gradientTransform="matrix(20.609,0,0,6.34,19.81,37.921)"
     gradientUnits="userSpaceOnUse">
    <stop
       offset="0%"
       stop-opacity="1"
       style="stop-color:rgb(0,196,255)"
       id="stop9" />
    <stop
       offset="83.88839793817618%"
       stop-opacity="1"
       style="stop-color:rgb(0,114,255)"
       id="stop11" />
  </linearGradient>
  <g
     id="g831"
     transform="matrix(0.77821012,0,0,0.77821012,-0.67704288,-1.1127433)">
    <path
       id="path7"
       d="m 37.017,25.861 c 0.158,0.947 0.982,1.67 1.973,1.67 v 0 0 c 1.1,0 2.15,0.44 2.93,1.22 0.77,0.77 1.21,1.83 1.21,2.93 v 3.31 c 0,1.1 -0.44,2.15 -1.21,2.93 -0.78,0.78 -1.83,1.22 -2.93,1.22 v 0 c -1.104,0 -2,0.896 -2,2 v 0 c 0,1.103 0.896,2 2,2 v 0 c 2.16,0 4.23,-0.86 5.76,-2.39 1.52,-1.53 2.38,-3.6 2.38,-5.76 v -3.31 c 0,-2.16 -0.86,-4.23 -2.38,-5.76 -1.048,-1.049 -2.35,-1.782 -3.76,-2.14 v -3.92 c 0,-0.08 -0.01,-0.17 -0.02,-0.25 -0.15,-1.23 -0.4,-2.44 -0.74,-3.63 -0.28,-1.01 -0.66,-1.99 -1.13,-2.93 -0.42,-0.84 -0.92,-1.64 -1.48,-2.38 -0.55,-0.71 -1.16,-1.36 -1.83,-1.95 -0.67,-0.59 -1.41,-1.11 -2.18,-1.56 -0.83,-0.47 -1.7,-0.87 -2.61,-1.19 -1.03,-0.36 -2.09,-0.62 -3.16,-0.79 -1.29,-0.2 -2.59,-0.31 -3.89,-0.32 -1.16,-0.01 -2.32,0.04 -3.48,0.15 -0.96,0.09 -1.91,0.24 -2.85,0.46 -0.92,0.2 -1.81,0.48 -2.69,0.83 -0.76,0.3 -1.5,0.67 -2.2,1.11 -0.76,0.47 -1.47,1.03 -2.11,1.66 -0.62,0.61 -1.17,1.29 -1.64,2.03 -0.49,0.78 -0.9,1.61 -1.2,2.48 -0.34,0.97 -0.59,1.97 -0.74,2.99 -0.01,0.1 -0.02,0.19 -0.02,0.29 v 2 0 c 0,1.103 0.896,2 2,2 v 0 c 1.104,0 2,-0.897 2,-2 v 0 -1.85 c 0.11,-0.72 0.29,-1.42 0.53,-2.1 0.21,-0.59 0.48,-1.14 0.81,-1.66 0.3,-0.49 0.66,-0.93 1.07,-1.33 0.43,-0.42 0.9,-0.8 1.42,-1.12 0.49,-0.31 1.01,-0.57 1.55,-0.78 0.69,-0.27 1.39,-0.49 2.11,-0.65 0.77,-0.18 1.55,-0.3 2.34,-0.38 1.02,-0.1 2.04,-0.14 3.07,-0.13 1.1,0.01 2.21,0.1 3.3,0.27 0.84,0.13 1.66,0.34 2.47,0.62 0.67,0.24 1.31,0.53 1.93,0.88 0.55,0.32 1.06,0.68 1.54,1.1 0.47,0.41 0.89,0.87 1.27,1.36 0.42,0.55 0.78,1.13 1.09,1.74 0.36,0.72 0.65,1.47 0.87,2.25 0.27,0.95 0.47,1.92 0.6,2.91 v 3.87 1.67 0 0.33 z M 9.02,39.141 v 0 c 1.104,0 2,0.896 2,2 v 0 c 0,1.103 -0.896,2 -2,2 v 0 c -2.16,0 -4.24,-0.86 -5.76,-2.39 -1.53,-1.53 -2.39,-3.6 -2.39,-5.76 v -3.31 c 0,-2.16 0.86,-4.23 2.39,-5.76 1.52,-1.53 3.6,-2.39 5.76,-2.39 v 0 c 1.104,0 2,0.896 2,2 v 0 c 0,1.103 -0.896,2 -2,2 v 0 c -1.1,0 -2.16,0.44 -2.94,1.22 -0.77,0.77 -1.21,1.83 -1.21,2.93 v 3.31 c 0,1.1 0.44,2.15 1.21,2.93 0.78,0.78 1.84,1.22 2.94,1.22 z m 7.11,0.24 v 0 c 0,1.103 -1.344,2 -3,2 v 0 c -0.552,0 -1,-0.448 -1,-1 v -1 -12.09 -1 c 0,-0.552 0.448,-1 1,-1 v 0 c 1.656,0 3,0.896 3,2 v 0 z m 19.74,-3.03 v 0.684 c 0,0.489 -0.397,0.886 -0.886,0.886 h -0.456 c -1.467,0 -2.658,-0.704 -2.658,-1.57 v 0 -9.49 0 c 0,-0.867 1.191,-1.57 2.658,-1.57 h 0.456 c 0.489,0 0.886,0.397 0.886,0.886 v 0.684 z"
       style="fill:url(#_lgradient_13);fill-rule:evenodd"
       inkscape:connector-curvature="0" />
    <path
       id="path14"
       d="M 27.984,40.106 39,40 l 1.23,0.904 c 0.06,0.552 0.507,0.51 -0.23,0.701 l -1,0.641 -11.156,0.107 C 27.199,43.475 25.72,44.26 24,44.26 c -2.313,0 -4.19,-1.42 -4.19,-3.17 0,-1.749 1.877,-3.169 4.19,-3.169 1.858,0 3.436,0.917 3.984,2.185 z"
       style="fill:url(#_lgradient_14);fill-rule:evenodd"
       inkscape:connector-curvature="0" />
  </g>
</svg>

<?xml version="1.0" encoding="UTF-8" standalone="no"?><!-- Generator: Gravit.io --><svg xmlns="http://www.w3.org/2000/svg" xmlns:xlink="http://www.w3.org/1999/xlink" style="isolation:isolate" viewBox="0 0 48 48" width="48pt" height="48pt"><linearGradient id="_lgradient_13" x1="0" y1="0.5" x2="0.9074880558539661" y2="0.9200778838291643" gradientTransform="matrix(46.26,0,0,38.281,0.87,4.859)" gradientUnits="userSpaceOnUse"><stop offset="0%" stop-opacity="1" style="stop-color:rgb(0,196,255)"/><stop offset="83.88839793817618%" stop-opacity="1" style="stop-color:rgb(0,114,255)"/></linearGradient><path d=" M 37.017 25.861 C 37.175 26.808 37.999 27.531 38.99 27.531 L 38.99 27.531 L 38.99 27.531 C 40.09 27.531 41.14 27.971 41.92 28.751 C 42.69 29.521 43.13 30.581 43.13 31.681 L 43.13 34.991 C 43.13 36.091 42.69 37.141 41.92 37.921 C 41.14 38.701 40.09 39.141 38.99 39.141 L 38.99 39.141 C 37.886 39.141 36.99 40.037 36.99 41.141 L 36.99 41.141 C 36.99 42.244 37.886 43.141 38.99 43.141 L 38.99 43.141 C 41.15 43.141 43.22 42.281 44.75 40.751 C 46.27 39.221 47.13 37.151 47.13 34.991 L 47.13 31.681 C 47.13 29.521 46.27 27.451 44.75 25.921 C 43.702 24.872 42.4 24.139 40.99 23.781 L 40.99 19.861 C 40.99 19.781 40.98 19.691 40.97 19.611 C 40.82 18.381 40.57 17.171 40.23 15.981 C 39.95 14.971 39.57 13.991 39.1 13.051 C 38.68 12.211 38.18 11.411 37.62 10.671 C 37.07 9.961 36.46 9.311 35.79 8.721 C 35.12 8.131 34.38 7.611 33.61 7.161 C 32.78 6.691 31.91 6.291 31 5.971 C 29.97 5.611 28.91 5.351 27.84 5.181 C 26.55 4.981 25.25 4.871 23.95 4.861 C 22.79 4.851 21.63 4.901 20.47 5.011 C 19.51 5.101 18.56 5.251 17.62 5.471 C 16.7 5.671 15.81 5.951 14.93 6.301 C 14.17 6.601 13.43 6.971 12.73 7.411 C 11.97 7.881 11.26 8.441 10.62 9.071 C 10 9.681 9.45 10.361 8.98 11.101 C 8.49 11.881 8.08 12.711 7.78 13.581 C 7.44 14.551 7.19 15.551 7.04 16.571 C 7.03 16.671 7.02 16.761 7.02 16.861 L 7.02 18.861 L 7.02 18.861 C 7.02 19.964 7.916 20.861 9.02 20.861 L 9.02 20.861 C 10.124 20.861 11.02 19.964 11.02 18.861 L 11.02 18.861 L 11.02 17.011 C 11.13 16.291 11.31 15.591 11.55 14.911 C 11.76 14.321 12.03 13.771 12.36 13.251 C 12.66 12.761 13.02 12.321 13.43 11.921 C 13.86 11.501 14.33 11.121 14.85 10.801 C 15.34 10.491 15.86 10.231 16.4 10.021 C 17.09 9.751 17.79 9.531 18.51 9.371 C 19.28 9.191 20.06 9.071 20.85 8.991 C 21.87 8.891 22.89 8.851 23.92 8.861 C 25.02 8.871 26.13 8.961 27.22 9.131 C 28.06 9.261 28.88 9.471 29.69 9.751 C 30.36 9.991 31 10.281 31.62 10.631 C 32.17 10.951 32.68 11.311 33.16 11.731 C 33.63 12.141 34.05 12.601 34.43 13.091 C 34.85 13.641 35.21 14.221 35.52 14.831 C 35.88 15.551 36.17 16.301 36.39 17.081 C 36.66 18.031 36.86 19.001 36.99 19.991 L 36.99 23.861 L 36.99 25.531 L 36.99 25.531 L 36.99 25.861 L 37.017 25.861 L 37.017 25.861 L 37.017 25.861 Z  M 9.02 39.141 L 9.02 39.141 C 10.124 39.141 11.02 40.037 11.02 41.141 L 11.02 41.141 C 11.02 42.244 10.124 43.141 9.02 43.141 L 9.02 43.141 C 6.86 43.141 4.78 42.281 3.26 40.751 C 1.73 39.221 0.87 37.151 0.87 34.991 L 0.87 31.681 C 0.87 29.521 1.73 27.451 3.26 25.921 C 4.78 24.391 6.86 23.531 9.02 23.531 L 9.02 23.531 C 10.124 23.531 11.02 24.427 11.02 25.531 L 11.02 25.531 C 11.02 26.634 10.124 27.531 9.02 27.531 L 9.02 27.531 C 7.92 27.531 6.86 27.971 6.08 28.751 C 5.31 29.521 4.87 30.581 4.87 31.681 L 4.87 34.991 C 4.87 36.091 5.31 37.141 6.08 37.921 C 6.86 38.701 7.92 39.141 9.02 39.141 L 9.02 39.141 L 9.02 39.141 L 9.02 39.141 Z  M 16.13 39.381 L 16.13 39.381 C 16.13 40.484 14.786 41.381 13.13 41.381 L 13.13 41.381 C 12.578 41.381 12.13 40.933 12.13 40.381 L 12.13 39.381 L 12.13 27.291 L 12.13 26.291 C 12.13 25.739 12.578 25.291 13.13 25.291 L 13.13 25.291 C 14.786 25.291 16.13 26.187 16.13 27.291 L 16.13 27.291 L 16.13 39.381 L 16.13 39.381 Z  M 35.87 36.351 L 35.87 37.035 C 35.87 37.524 35.473 37.921 34.984 37.921 L 34.528 37.921 C 33.061 37.921 31.87 37.217 31.87 36.351 L 31.87 36.351 L 31.87 26.861 L 31.87 26.861 C 31.87 25.994 33.061 25.291 34.528 25.291 L 34.984 25.291 C 35.473 25.291 35.87 25.688 35.87 26.177 L 35.87 26.861 L 35.87 36.351 Z " fill-rule="evenodd" fill="url(#_lgradient_13)"/><linearGradient id="_lgradient_14" x1="0.03954598802511279" y1="0.2885593790341563" x2="0.8998928551127165" y2="0.9606871603016655" gradientTransform="matrix(20.609,0,0,6.34,19.81,37.921)" gradientUnits="userSpaceOnUse"><stop offset="0%" stop-opacity="1" style="stop-color:rgb(0,196,255)"/><stop offset="83.88839793817618%" stop-opacity="1" style="stop-color:rgb(0,114,255)"/></linearGradient><path d=" M 27.984 40.106 L 39 40 L 40.23 40.904 C 40.29 41.456 40.737 41.414 40 41.605 L 39 42.246 L 27.844 42.353 C 27.199 43.475 25.72 44.26 24 44.26 C 21.687 44.26 19.81 42.84 19.81 41.09 C 19.81 39.341 21.687 37.921 24 37.921 C 25.858 37.921 27.436 38.838 27.984 40.106 Z " fill-rule="evenodd" fill="url(#_lgradient_14)"/></svg>
